public/ArrowLeft.svg

<svg width="32" height="32" viewBox="0 0 32 32" fill="none" xmlns="http://www.w3.org/2000/svg">
<path fill-rule="evenodd" clip-rule="evenodd" d="M27.75 16C27.75 16.4142 27.4142 16.75 27 16.75L5 16.75C4.58579 16.75 4.25 16.4142 4.25 16C4.25 15.5858 4.58579 15.25 5 15.25L27 15.25C27.4142 15.25 27.75 15.5858 27.75 16Z" fill="black" fill-opacity="0.3"/>
<path fill-rule="evenodd" clip-rule="evenodd" d="M14.5303 25.5303C14.2374 25.8232 13.7626 25.8232 13.4697 25.5303L4.46967 16.5303C4.17678 16.2374 4.17678 15.7626 4.46967 15.4697L13.4697 6.46967C13.7626 6.17678 14.2374 6.17678 14.5303 6.46967C14.8232 6.76256 14.8232 7.23744 14.5303 7.53033L6.06066 16L14.5303 24.4697C14.8232 24.7626 14.8232 25.2374 14.5303 25.5303Z" fill="black" fill-opacity="0.3"/>
</svg>

<svg width="32" height="32" fill="none" xmlns="http://www.w3.org/2000/svg"><path fill-rule="evenodd" clip-rule="evenodd" d="M27.75 16a.75.75 0 0 1-.75.75H5a.75.75 0 0 1 0-1.5h22a.75.75 0 0 1 .75.75Z" fill="#000" fill-opacity=".3"/><path fill-rule="evenodd" clip-rule="evenodd" d="M14.53 25.53a.75.75 0 0 1-1.06 0l-9-9a.75.75 0 0 1 0-1.06l9-9a.75.75 0 1 1 1.06 1.06L6.06 16l8.47 8.47a.75.75 0 0 1 0 1.06Z" fill="#000" fill-opacity=".3"/></svg>
